assets/img/spain.svg

<?xml version="1.0" encoding="iso-8859-1"?>
<!-- Generator: Adobe Illustrator 16.0.0, SVG Export Plug-In . SVG Version: 6.00 Build 0)  -->
<!DOCTYPE svg PUBLIC "-//W3C//DTD SVG 1.1//EN" "http://www.w3.org/Graphics/SVG/1.1/DTD/svg11.dtd">
<svg version="1.1" id="Capa_1" xmlns="http://www.w3.org/2000/svg" xmlns:xlink="http://www.w3.org/1999/xlink" x="0px" y="0px"
	 width="21.186px" height="21.186px" viewBox="0 0 21.186 21.186" style="enable-background:new 0 0 21.186 21.186;"
	 xml:space="preserve">
<g>
	<path d="M0.66,5.918c1.257-0.082,2.383,0.617,3.613,0.3c0.2-0.053,1.23,0.582,0.307,1.269C4.156,7.801,4.072,8.2,3.983,8.721
		c-0.146,0.857,0.486,2.077-0.944,2.484c-0.28,0.08-0.013,0.313,0.06,0.452c0.331,0.629,0.285,1.21,0.239,1.935
		c-0.053,0.854-0.244,1.561-0.518,2.321c-0.094,0.264-0.108,0.842,0.326,0.847c1.265,0.012,1.526,0.983,2.007,1.823
		c0.331,0.577,0.881,1.309,1.591,0.6c1.005-1.004,2.121-1.607,3.494-1.272c2.31,0.564,3.024-1.939,4.797-2.349
		c-0.49-1.43,2.429-2.213,0.721-3.925c-0.352-0.354,0.041-0.971,0.324-1.348c0.928-1.244,1.287-3,3.229-3.348
		c0.542-0.097,0.968-0.776,1.478-1.146c0.502-0.367,0.426-0.871,0.322-1.333c-0.149-0.68-0.647-0.278-1.041-0.285
		c-0.8-0.01-1.639,0.184-2.342-0.481c-0.193-0.185-0.716-0.249-0.951-0.12c-1.238,0.686-2.281-0.076-3.297-0.487
		c-0.484-0.196-0.914-0.353-1.439-0.456c-2.021-0.398-4.073-0.101-6.115-0.319C4.322,2.142,2.74,1.635,1.079,1.72
		C0.092,1.768,0.002,2.109,0,2.925C-0.002,4.023,1.031,4.842,0.66,5.918z"/>
</g>
<g>
</g>
<g>
</g>
<g>
</g>
<g>
</g>
<g>
</g>
<g>
</g>
<g>
</g>
<g>
</g>
<g>
</g>
<g>
</g>
<g>
</g>
<g>
</g>
<g>
</g>
<g>
</g>
<g>
</g>
</svg>

<?xml version="1.0" encoding="UTF-8" standalone="no"?>
<!-- Generator: Adobe Illustrator 16.0.0, SVG Export Plug-In . SVG Version: 6.00 Build 0)  -->

<svg
   version="1.1"
   id="Capa_1"
   x="0px"
   y="0px"
   width="942.15381"
   height="790.03595"
   viewBox="0 0 942.15377 790.03592"
   xml:space="preserve"
   sodipodi:docname="spain.svg"
   inkscape:version="1.3.1 (9b9bdc1480, 2023-11-25, custom)"
   xmlns:inkscape="http://www.inkscape.org/namespaces/inkscape"
   xmlns:sodipodi="http://sodipodi.sourceforge.net/DTD/sodipodi-0.dtd"
   xmlns="http://www.w3.org/2000/svg"
   xmlns:svg="http://www.w3.org/2000/svg"><defs
   id="defs16" /><sodipodi:namedview
   id="namedview16"
   pagecolor="#ffffff"
   bordercolor="#000000"
   borderopacity="0.25"
   inkscape:showpageshadow="2"
   inkscape:pageopacity="0.0"
   inkscape:pagecheckerboard="0"
   inkscape:deskcolor="#d1d1d1"
   inkscape:zoom="0.91825069"
   inkscape:cx="447.04568"
   inkscape:cy="395.31688"
   inkscape:window-width="1606"
   inkscape:window-height="986"
   inkscape:window-x="0"
   inkscape:window-y="0"
   inkscape:window-maximized="1"
   inkscape:current-layer="Capa_1" />
<g
   id="g1"
   transform="matrix(44.47208,0,0,44.47208,1.2900258e-4,-76.068205)">
	<path
   d="M 0.66,5.918 C 1.917,5.836 3.043,6.535 4.273,6.218 4.473,6.165 5.503,6.8 4.58,7.487 4.156,7.801 4.072,8.2 3.983,8.721 c -0.146,0.857 0.486,2.077 -0.944,2.484 -0.28,0.08 -0.013,0.313 0.06,0.452 0.331,0.629 0.285,1.21 0.239,1.935 -0.053,0.854 -0.244,1.561 -0.518,2.321 -0.094,0.264 -0.108,0.842 0.326,0.847 1.265,0.012 1.526,0.983 2.007,1.823 0.331,0.577 0.881,1.309 1.591,0.6 1.005,-1.004 2.121,-1.607 3.494,-1.272 2.31,0.564 3.024,-1.939 4.797,-2.349 -0.49,-1.43 2.429,-2.213 0.721,-3.925 -0.352,-0.354 0.041,-0.971 0.324,-1.348 0.928,-1.244 1.287,-3 3.229,-3.348 C 19.851,6.844 20.277,6.165 20.787,5.795 21.289,5.428 21.213,4.924 21.109,4.462 20.96,3.782 20.462,4.184 20.068,4.177 19.268,4.167 18.429,4.361 17.726,3.696 17.533,3.511 17.01,3.447 16.775,3.576 15.537,4.262 14.494,3.5 13.478,3.089 12.994,2.893 12.564,2.736 12.039,2.633 10.018,2.235 7.966,2.532 5.924,2.314 4.322,2.142 2.74,1.635 1.079,1.72 0.092,1.768 0.002,2.109 0,2.925 -0.002,4.023 1.031,4.842 0.66,5.918 Z"
   id="path1" />
</g>
<g
   id="g2"
   transform="translate(2.9007485e-6,55.752735)">
</g>
<g
   id="g3"
   transform="translate(2.9007485e-6,55.752735)">
</g>
<g
   id="g4"
   transform="translate(2.9007485e-6,55.752735)">
</g>
<g
   id="g5"
   transform="translate(2.9007485e-6,55.752735)">
</g>
<g
   id="g6"
   transform="translate(2.9007485e-6,55.752735)">
</g>
<g
   id="g7"
   transform="translate(2.9007485e-6,55.752735)">
</g>
<g
   id="g8"
   transform="translate(2.9007485e-6,55.752735)">
</g>
<g
   id="g9"
   transform="translate(2.9007485e-6,55.752735)">
</g>
<g
   id="g10"
   transform="translate(2.9007485e-6,55.752735)">
</g>
<g
   id="g11"
   transform="translate(2.9007485e-6,55.752735)">
</g>
<g
   id="g12"
   transform="translate(2.9007485e-6,55.752735)">
</g>
<g
   id="g13"
   transform="translate(2.9007485e-6,55.752735)">
</g>
<g
   id="g14"
   transform="translate(2.9007485e-6,55.752735)">
</g>
<g
   id="g15"
   transform="translate(2.9007485e-6,55.752735)">
</g>
<g
   id="g16"
   transform="translate(2.9007485e-6,55.752735)">
</g>
</svg>
